X: 15
T: Heather Breeze, The
Z: benhockenberry
S: https://thesession.org/tunes/411#setting53927
R: reel
M: 4/4
L: 1/8
K: Dmaj
|:A,DFD ADFD|A,CEC GCEC|A,DFD ADFD|1FAEG FDD2,:|2FAEG FDAB||
d2 dc dfed|cAAB cdec|Addc dfed|cAGE FDAB |
d2 dc dfed|cAAB cdec|fdec dedB|FAEG FDD2||

%-------------------- TUNE SEPARATOR --------------------%

